remix/Business/mail-check-fill.svg

<svg viewBox="0 0 24 24" fill="currentColor" xmlns="http://www.w3.org/2000/svg"><path d="M22 13.3414C21.3744 13.1203 20.7013 13 20 13C16.6863 13 14 15.6863 14 19C14 19.7013 14.1203 20.3744 14.3414 21H3C2.44772 21 2 20.5523 2 20V4C2 3.44772 2.44772 3 3 3H21C21.5523 3 22 3.44772 22 4V13.3414ZM12.0606 11.6829L5.64722 6.2377L4.35278 7.7623L12.0731 14.3171L19.6544 7.75616L18.3456 6.24384L12.0606 11.6829ZM19 22L15.4645 18.4645L16.8787 17.0503L19 19.1716L22.5355 15.636L23.9497 17.0503L19 22Z"/></svg>

<svg viewBox="0 0 24 24" xmlns="http://www.w3.org/2000/svg"><path fill="none" d="M0 0h24v24H0Z"/><path d="M22 13.341v-.001c-3.13-1.11-6.56.52-7.66 3.65 -.46 1.29-.46 2.71 0 4H2.99v0c-.56 0-1-.45-1-1v-16 0c0-.56.44-1 1-1h18v0c.55 0 1 .44 1 1v9.341Zm-9.94-1.66L5.64 6.23 4.34 7.75l7.72 6.55 7.58-6.56 -1.31-1.513 -6.285 5.43ZM19 21.99l-3.54-3.54 1.41-1.42 2.12 2.12 3.53-3.54 1.41 1.41 -4.95 4.95Z"/></svg>
